optimized/solid/server.svg

<svg xmlns="http://www.w3.org/2000/svg" viewBox="0 0 20 20" fill="currentColor" aria-hidden="true">
  <path fill-rule="evenodd" d="M2 5C2 3.89543 2.89543 3 4 3H16C17.1046 3 18 3.89543 18 5V7C18 8.10457 17.1046 9 16 9H4C2.89543 9 2 8.10457 2 7V5ZM16 6C16 6.55228 15.5523 7 15 7C14.4477 7 14 6.55228 14 6C14 5.44772 14.4477 5 15 5C15.5523 5 16 5.44772 16 6Z" clip-rule="evenodd"/>
  <path fill-rule="evenodd" d="M2 13C2 11.8954 2.89543 11 4 11H16C17.1046 11 18 11.8954 18 13V15C18 16.1046 17.1046 17 16 17H4C2.89543 17 2 16.1046 2 15V13ZM16 14C16 14.5523 15.5523 15 15 15C14.4477 15 14 14.5523 14 14C14 13.4477 14.4477 13 15 13C15.5523 13 16 13.4477 16 14Z" clip-rule="evenodd"/>
</svg>

<svg xmlns="http://www.w3.org/2000/svg" viewBox="0 0 20 20" fill="currentColor" aria-hidden="true">
  <path fill-rule="evenodd" d="M2 5a2 2 0 012-2h12a2 2 0 012 2v2a2 2 0 01-2 2H4a2 2 0 01-2-2V5zm14 1a1 1 0 11-2 0 1 1 0 012 0zM2 13a2 2 0 012-2h12a2 2 0 012 2v2a2 2 0 01-2 2H4a2 2 0 01-2-2v-2zm14 1a1 1 0 11-2 0 1 1 0 012 0z" clip-rule="evenodd"/>
</svg>
